X:23
T:Reel de la Tuque Bleue
C:Joseph Allard
M:2/4
L:1/16
Z:abc by Bruce Osborne - bosborne@kos.net
K:F
f2cf fagf|eceg bgge|f2cf fagf|edcB AFAc|!
f2cf fagf|eceg bgge|f2ce fagf|edcB AFF2:|!
|:AFcF AFGA|BGdG BGGB|AFcF AFGA|BdcB AFFB|!
AFcF AFGA|BGdG BGGB|AFcF AFGA|BdcB AFF2:|!
